X:1
T:Title
%%score { ( 1 4 5 ) | ( 2 3 ) }
L:1/8
M:6/8
K:G
V:1 treble nm="Grand Piano"
V:4 treble 
V:5 treble 
V:2 bass 
V:3 bass 
V:1
 z3 z2[Q:1/4=90] [D,D] | [B,B]>[B,A][B,G] [B,D]2 [B,D] | [_B,E]>[B,F][B,E] [=B,D]2 [B,D] | %3
 D>FA [Fd]>[FA][F_B] |[M:5/8] B2 c B z |[M:1/8] D |[M:3/4] [B,B]>[B,A] [B,G] [B,D]2 [B,D] | %7
 [CE]>[EG] [EA] [^DB]2 [=DB] | [Cc]>[CB] [Cc]F- F/E/F |[M:11/16] A/-A/-A-<A[B,G]3/2 z | %10
[M:3/4] z2 z d3 | z2 z d3 | z2 z d3 | z2 z B3 | DG .B2 .G2 | Be .B2 .G2 | BB .B2 .F2 | %17
[M:13/16] dB^cd-[Gd-][Ad]3/2 |[M:3/4] z2 z d3 | z2 z d3 | z2 z d3 | z B z B3 | z2 z d3 | z2 z e3 | %24
[M:27/32] z/4 z/4 z/ G/-<G/ z/4 z/4 z/4 z/4 z/4 z/4 z/4 z/4 z/4 z/4 z/4 z/4 z/4 z/4 z/ [DB]3/4[Q:1/4=89][Q:1/4=87][Q:1/4=86][Q:1/4=85][Q:1/4=83][Q:1/4=82][Q:1/4=81] | %25
[M:5/8] F2- F/[CFA]/- [CFA]/4 z/4 z/ z[Q:1/4=79][Q:1/4=78][Q:1/4=77][Q:1/4=75][Q:1/4=74][Q:1/4=73][Q:1/4=71][Q:1/4=70][Q:1/4=69] | %26
 z5 |] %27
V:2
 z6 | [G,,D,]>[G,,D,][G,,D,] [G,,D,]2 [G,,D,] | [G,,^C,]>[G,,C,][G,,C,] [G,,D,]2 [G,,G,] | %3
 [D,F,C]>[D,A,D][D,F,D] [D,A,]>[D,D][D,D] |[M:5/8][K:treble] D2 E [G,DG] z |[M:1/8][K:bass] D, | %6
[M:3/4] [G,,D,]>[G,,D,] [G,,D,] [G,,D,]2 [G,,G,] | [C,G,]>[C,E,] [C,E,] [B,,F,]2 [E,^G,] | %8
 [A,,A,]>[A,,A,] [A,,A,][D,A,C]- [D,A,C]/[D,G,C]/[D,A,C] | %9
[M:11/16] [D,F,C]/-[D,F,C]/-[D,F,C]-<[D,F,C][G,,G,]3/2 z | %10
[M:3/4] z2 z[K:treble] [G,B,G] [G,B,][G,B,]- | [G,B,] [G,B,G]2 [G,B,G][K:bass] [G,B,][G,B,]- | %12
 [G,B,] [G,B,D]2 [D,A,] [D,A,][D,A,]- | [D,A,] [D,D]2[K:treble] [G,DG] [G,D][G,D] | %14
 z2 z [G,B,G] [G,B,][G,B,]- | [G,B,] [G,B,G]2 [G,B,G] [G,B,][G,B,]- | %16
 [G,B,] [^G,D=F]2 [A,D^F][K:bass] [A,D][A,D]- | %17
[M:13/16] [A,D][A,,A,]-<[A,,A,][D,A,][D,B,][D,C]3/2 |[M:3/4] z2 z[K:treble] [G,B,G] [G,B,][G,B,]- | %19
 [G,B,] [G,B,G]2 [G,B,G][K:bass] [G,B,][G,B,]- | [G,B,] [G,B,D]2 [D,A,] [D,A,][D,A,]- | %21
 [D,A,] [D,D]2[K:treble] [G,DG] [G,D][G,D] | z2 z [G,B,G] [G,B,][G,B,]- | %23
 [G,B,] [G,B,=F]2[K:bass] [C,C] .C,2 | %24
[M:27/32] e/-<e/ z/4 z/4 z/ A/-<A/[D,G,]/-<[D,G,]/[D,B,]/-<[D,B,]/D,/-<D,/D,3/4 | %25
[M:5/8] z z z/ D,/- D,/4 z/4 z/ z | z5 |] %27
V:3
 x6 | x6 | x6 | x6 |[M:5/8][K:treble] [G,G]3 z2 |[M:1/8][K:bass] x |[M:3/4] x6 | x6 | x6 | %9
[M:11/16] x11/2 |[M:3/4] x3[K:treble] x3 | x4[K:bass] x2 | x6 | x3[K:treble] x3 | x6 | x6 | %16
 x4[K:bass] x2 |[M:13/16] x13/2 |[M:3/4] x3[K:treble] x3 | x4[K:bass] x2 | x6 | x3[K:treble] x3 | %22
 x6 | z2 z2[K:bass] z C,- | %24
[M:27/32] C,/-<C,/C,/4-C,/4-C,/4-C,/4-C,/-<C,/ z/4 z/4 z/4 z/4 z/4 z/4 z/4 z/4 z/4 z/4 z/4 z/4 z/4 z/ | %25
[M:5/8] D,3 G,,2- | G,,- G,,2- G,,/4 z/4 z/ z |] %27
V:4
 x6 | x6 | x6 | x6 |[M:5/8] x5 |[M:1/8] x |[M:3/4] x6 | x6 | x6 |[M:11/16] x11/2 | %10
[M:3/4] DG .B2 .G2 | Be .B2 .G2 | BA GF .F2 | c[FB] .A2 GG | z2 z d3 | z2 z d3 | z2 z A3 | %17
[M:13/16] z G-<G.F3/2 z/ z/ z |[M:3/4] DG .B2 .G2 | Be .B2 .G2 | BA GF .F2 | c.F- .[FA]2 GG | %22
 DG .B2 GG | BA GE [G,E][G,E]- | %24
[M:27/32] [G,E]/-<[G,E]/[G,E]/4-[G,E]/4-[G,E]/4-[G,E]/4-[G,E]/-<[G,E]/[DB]/-<[DB]/[Gd]/-<[Gd]/[EGc]/-<[EGc]/G3/4- | %25
[M:5/8] [D-GB-]/>[DB]/-[DB]3/2-[DB]/4 z/4 [B,DG]2- | [B,DG]- [B,DG]2- [B,DG]/4 z/4 z/ z |] %27
V:5
 x6 | x6 | x6 | x6 |[M:5/8] x5 |[M:1/8] x |[M:3/4] x6 | x6 | x6 |[M:11/16] x11/2 | %10
[M:3/4] z2 z2 z G- | G z z2 z G- | G z z2 z F- | F z z2 z2 | z2 z2 z G- | G z z2 z G- | %16
 G z z2 z F- |[M:13/16] F3/2 z/ z/ z/ z/ z/ z/ z/ z/ z |[M:3/4] z2 z2 z G- | G z z2 z G- | %20
 G z z2 z F- | F z z2 z2 | x6 | x6 |[M:27/32] x27/4 |[M:5/8] x5 | x5 |] %27

